apps/mobile/assets/icons/phosphor/sliders.svg

<svg
  height="32"
  viewBox="0 0 256 256"
  width="32"
  xmlns="http://www.w3.org/2000/svg"
>
  <path
    d="m64 105v-65a8 8 0 0 0 -16 0v65a32 32 0 0 0 0 62v49a8 8 0 0 0 16 0v-49a32 32 0 0 0 0-62zm-8 47a16 16 0 1 1 16-16 16 16 0 0 1 -16 16zm80-95v-17a8 8 0 0 0 -16 0v17a32 32 0 0 0 0 62v97a8 8 0 0 0 16 0v-97a32 32 0 0 0 0-62zm-8 47a16 16 0 1 1 16-16 16 16 0 0 1 -16 16zm104 64a32.06 32.06 0 0 0 -24-31v-97a8 8 0 0 0 -16 0v97a32 32 0 0 0 0 62v17a8 8 0 0 0 16 0v-17a32.06 32.06 0 0 0 24-31zm-32 16a16 16 0 1 1 16-16 16 16 0 0 1 -16 16z"
  />
</svg>

<svg xmlns="http://www.w3.org/2000/svg" width="32" height="32" fill="#000000" viewBox="0 0 256 256"><path d="M64,105V40a8,8,0,0,0-16,0v65a32,32,0,0,0,0,62v49a8,8,0,0,0,16,0V167a32,32,0,0,0,0-62Zm-8,47a16,16,0,1,1,16-16A16,16,0,0,1,56,152Zm80-95V40a8,8,0,0,0-16,0V57a32,32,0,0,0,0,62v97a8,8,0,0,0,16,0V119a32,32,0,0,0,0-62Zm-8,47a16,16,0,1,1,16-16A16,16,0,0,1,128,104Zm104,64a32.06,32.06,0,0,0-24-31V40a8,8,0,0,0-16,0v97a32,32,0,0,0,0,62v17a8,8,0,0,0,16,0V199A32.06,32.06,0,0,0,232,168Zm-32,16a16,16,0,1,1,16-16A16,16,0,0,1,200,184Z"></path></svg>
